src/status/16/clipman.svg

<svg viewBox="0 0 16 16" xmlns="http://www.w3.org/2000/svg">
 <path d="m5 0v2h6v-2zm-2 1c-0.554 0-1 0.446-1 1v12c0 0.554 0.446 1 1 1h10c0.554 0 1-0.446 1-1v-12c0-0.554-1-1-1-1v13h-10zm1 2v1h5v-1zm0 3v1h7v-1zm0 3v1h3v-1zm0 3v1h8v-1z" fill="#2e3440"/>
</svg>

<svg xmlns="http://www.w3.org/2000/svg" viewBox="0 0 16 16">
 <path d="m 5,0 0,2 6,0 0,-2 z M 3,1 C 2.446,1 2,1.446 2,2 l 0,12 c 0,0.554 0.446,1 1,1 l 10,0 c 0.554,0 1,-0.446 1,-1 L 14,2 C 14,1.446 13,1 13,1 L 13,14 3,14 Z M 4,3 4,4 9,4 9,3 Z m 0,3 0,1 7,0 0,-1 z m 0,3 0,1 3,0 0,-1 z m 0,3 0,1 8,0 0,-1 z" style="fill:#2e3440;opacity:1;fill-opacity:1;stroke:none;fill-rule:nonzero"/>
</svg>
